src/components/Icon/svg-icon/main/lock.svg

<svg xmlns="http://www.w3.org/2000/svg" width="24" height="24"><path fill="#677078" d="M20 8h-3V6.21c0-2.61-1.91-4.94-4.51-5.19A5.008 5.008 0 007 6v2H4v14h16V8zm-8 9c-1.1 0-2-.9-2-2s.9-2 2-2 2 .9 2 2-.9 2-2 2zM9 8V6c0-1.66 1.34-3 3-3s3 1.34 3 3v2H9z"/></svg>

<svg xmlns="http://www.w3.org/2000/svg" width="24" height="24" viewBox="0 0 24 24">
  <path fill="#677078" d="M20,8 L17,8 L17,6.21 C17,3.6 15.09,1.27 12.49,1.02 C9.51,0.74 7,3.08 7,6 L7,8 L4,8 L4,22 L20,22 L20,8 Z M12,17 C10.9,17 10,16.1 10,15 C10,13.9 10.9,13 12,13 C13.1,13 14,13.9 14,15 C14,16.1 13.1,17 12,17 Z M9,8 L9,6 C9,4.34 10.34,3 12,3 C13.66,3 15,4.34 15,6 L15,8 L9,8 Z"/>
</svg>
